X: 9231
T: Dan Collins' Father's
R: jig
M: 6/8
K: Dmajor
|:GDD EDD|GAB d2B|ded B2A|G2E EDE|
GDD EDD|GAB d2B|ded B2A|AAG G3:|
|:Bdd Bdd|edB d2d|ded B2A|G2E EDE|
GDD EDD|GAB d2B|ded B2A|AAG G3:|

